src/assets/layouts.svg

<svg width="26" height="26" viewBox="0 0 26 26" fill="none" xmlns="http://www.w3.org/2000/svg">
<path d="M5.66699 14.6953C6.58294 14.6953 7.34332 14.6945 7.95606 14.7568C8.58483 14.8208 9.16516 14.9597 9.6875 15.3086C10.0847 15.574 10.426 15.9153 10.6914 16.3125L10.8125 16.5107C11.074 16.9806 11.1872 17.4944 11.2432 18.0449C11.3054 18.6576 11.3047 19.4181 11.3047 20.334C11.3047 21.2498 11.3055 22.0104 11.2432 22.623C11.1792 23.2518 11.0404 23.8322 10.6914 24.3545C10.426 24.7517 10.0847 25.093 9.6875 25.3584C9.16516 25.7073 8.58484 25.8462 7.95606 25.9102C7.34332 25.9725 6.58293 25.9717 5.66699 25.9717C4.75107 25.9717 3.99068 25.9725 3.37793 25.9102C2.74892 25.8462 2.168 25.7075 1.64551 25.3584C1.24832 25.093 0.907 24.7517 0.641602 24.3545C0.292694 23.8322 0.153848 23.2517 0.0898443 22.623C0.0275162 22.0104 0.0283204 21.2498 0.0283209 20.334C0.0283209 19.4182 0.0275641 18.6576 0.0898443 18.0449C0.153826 17.416 0.292568 16.8349 0.641602 16.3125L0.745118 16.166C0.993587 15.8311 1.29805 15.5408 1.64551 15.3086C2.16799 14.9595 2.74895 14.8208 3.37793 14.7568C3.99068 14.6945 4.75108 14.6953 5.66699 14.6953ZM20.334 14.6953C21.2497 14.6953 22.0104 14.6945 22.623 14.7568C23.2517 14.8209 23.8323 14.9597 24.3545 15.3086C24.7516 15.574 25.0931 15.9154 25.3584 16.3125L25.4795 16.5107C25.7409 16.9805 25.8542 17.4945 25.9102 18.0449C25.9724 18.6576 25.9717 19.4182 25.9717 20.334C25.9717 21.2498 25.9725 22.0104 25.9102 22.623C25.8461 23.2518 25.7074 23.8322 25.3584 24.3545C25.093 24.7518 24.7518 25.093 24.3545 25.3584C23.8322 25.7074 23.2517 25.8461 22.623 25.9102C22.0104 25.9725 21.2497 25.9717 20.334 25.9717C19.4182 25.9717 18.6576 25.9724 18.0449 25.9102C17.416 25.8462 16.8349 25.7074 16.3125 25.3584C15.9156 25.0931 15.574 24.7523 15.3086 24.3555V24.3545C14.9597 23.8322 14.8208 23.2517 14.7568 22.623C14.6945 22.0104 14.6953 21.2498 14.6953 20.334C14.6953 19.4181 14.6946 18.6576 14.7568 18.0449C14.8208 17.4159 14.9595 16.835 15.3086 16.3125L15.4121 16.166C15.6606 15.8312 15.9651 15.5408 16.3125 15.3086C16.835 14.9596 17.416 14.8208 18.0449 14.7568C18.6576 14.6946 19.4182 14.6953 20.334 14.6953ZM5.66699 16.6387C4.71047 16.6387 4.06587 16.6394 3.57422 16.6895C3.09883 16.7378 2.87468 16.8235 2.72461 16.9238C2.53959 17.0475 2.38047 17.2065 2.25684 17.3916C2.15662 17.5416 2.07081 17.766 2.02246 18.2412C1.97247 18.7328 1.97168 19.3776 1.97168 20.334C1.97168 21.29 1.97249 21.9343 2.02246 22.4258C2.07082 22.9009 2.15663 23.1254 2.25684 23.2754L2.35645 23.4092C2.46193 23.5377 2.58591 23.6505 2.72461 23.7432L2.85449 23.8154C3.00303 23.8841 3.21807 23.9413 3.57422 23.9775C4.06586 24.0276 4.71048 24.0293 5.66699 24.0293C6.62313 24.0293 7.26724 24.0275 7.75879 23.9775C8.23404 23.9292 8.45833 23.8434 8.6084 23.7432L8.74219 23.6436C8.87065 23.5381 8.98348 23.4141 9.07617 23.2754L9.14844 23.1465C9.21717 22.998 9.27426 22.7823 9.31055 22.4258C9.36052 21.9343 9.3623 21.29 9.36231 20.334C9.36231 19.3776 9.36054 18.7328 9.31055 18.2412C9.27432 17.8851 9.21703 17.67 9.14844 17.5215L9.07617 17.3916C8.95255 17.2066 8.79336 17.0474 8.6084 16.9238C8.45833 16.8236 8.23398 16.7378 7.75879 16.6895C7.26724 16.6395 6.62312 16.6387 5.66699 16.6387ZM20.334 16.6387C19.3777 16.6387 18.7328 16.6395 18.2412 16.6895C17.766 16.7378 17.5417 16.8236 17.3916 16.9238C17.2067 17.0474 17.0477 17.2064 16.9238 17.3916C16.8236 17.5416 16.7378 17.7658 16.6895 18.2412C16.6395 18.7328 16.6387 19.3776 16.6387 20.334C16.6387 21.29 16.6395 21.9343 16.6895 22.4258C16.7378 22.9009 16.8236 23.1254 16.9238 23.2754L17.0234 23.4092C17.129 23.5376 17.2531 23.6505 17.3916 23.7432L17.5205 23.8154C17.6691 23.8842 17.8847 23.9413 18.2412 23.9775C18.7328 24.0275 19.3777 24.0293 20.334 24.0293C21.2899 24.0293 21.9343 24.0275 22.4258 23.9775C22.901 23.9292 23.1254 23.8434 23.2754 23.7432L23.4092 23.6436C23.5376 23.5381 23.6505 23.4141 23.7432 23.2754L23.8154 23.1465C23.8842 22.998 23.9412 22.7824 23.9775 22.4258C24.0275 21.9343 24.0293 21.29 24.0293 20.334C24.0293 19.3776 24.0275 18.7328 23.9775 18.2412C23.9413 17.8852 23.884 17.67 23.8154 17.5215L23.7432 17.3916C23.6505 17.253 23.5376 17.1289 23.4092 17.0234L23.2754 16.9238C23.1254 16.8236 22.9008 16.7378 22.4258 16.6895C21.9343 16.6395 21.2899 16.6387 20.334 16.6387ZM5.66699 0.0283208C6.58294 0.0283206 7.34332 0.0275131 7.95606 0.0898443C8.58485 0.153836 9.16515 0.292681 9.6875 0.641602C10.0847 0.907014 10.426 1.24828 10.6914 1.64551C11.0405 2.16803 11.1792 2.74889 11.2432 3.37793C11.3055 3.99068 11.3047 4.75105 11.3047 5.66699C11.3047 6.58294 11.3055 7.34333 11.2432 7.95606C11.1792 8.5849 11.0404 9.16512 10.6914 9.6875C10.426 10.0848 10.0847 10.426 9.6875 10.6914C9.16512 11.0404 8.5849 11.1792 7.95606 11.2432C7.34332 11.3055 6.58294 11.3047 5.66699 11.3047C4.75105 11.3047 3.99068 11.3055 3.37793 11.2432C2.74889 11.1792 2.16803 11.0405 1.64551 10.6914C1.2483 10.426 0.907017 10.0847 0.641602 9.6875C0.292676 9.16515 0.153838 8.58484 0.0898443 7.95606C0.027511 7.34332 0.0283206 6.58294 0.0283209 5.66699C0.0283209 4.75107 0.0275376 3.99068 0.0898443 3.37793C0.153833 2.74893 0.292507 2.168 0.641602 1.64551C0.907029 1.24825 1.24827 0.907033 1.64551 0.641602C2.16801 0.29251 2.74893 0.153831 3.37793 0.0898443C3.99068 0.0275393 4.75107 0.0283208 5.66699 0.0283208ZM20.334 0.0283208C21.2497 0.0283204 22.0104 0.0275214 22.623 0.0898443C23.2517 0.153853 23.8323 0.292722 24.3545 0.641602C24.7516 0.906996 25.093 1.24834 25.3584 1.64551C25.7075 2.16799 25.8462 2.74895 25.9102 3.37793C25.9725 3.99068 25.9717 4.75108 25.9717 5.66699C25.9717 6.58291 25.9725 7.34333 25.9102 7.95606C25.8462 8.58482 25.7073 9.16517 25.3584 9.6875C25.093 10.0847 24.7517 10.426 24.3545 10.6914C23.8322 11.0404 23.2517 11.1791 22.623 11.2432C22.0104 11.3055 21.2497 11.3047 20.334 11.3047C19.4182 11.3047 18.6576 11.3054 18.0449 11.2432C17.416 11.1792 16.835 11.0404 16.3125 10.6914C15.9156 10.4261 15.574 10.0854 15.3086 9.68848V9.6875C14.9597 9.16515 14.8208 8.58485 14.7568 7.95606C14.6945 7.34334 14.6953 6.58294 14.6953 5.66699C14.6953 4.75105 14.6945 3.99067 14.7568 3.37793C14.8208 2.74893 14.9595 2.16801 15.3086 1.64551L15.4121 1.49902C15.6606 1.16426 15.9652 0.873758 16.3125 0.641602C16.8349 0.292669 17.416 0.153821 18.0449 0.0898443C18.6576 0.02758 19.4182 0.0283208 20.334 0.0283208ZM5.66699 1.97168C4.71048 1.97168 4.06587 1.97245 3.57422 2.02246C3.0988 2.07082 2.87469 2.15656 2.72461 2.25684C2.53952 2.38052 2.38049 2.53954 2.25684 2.72461C2.15655 2.87469 2.07083 3.0988 2.02246 3.57422C1.97245 4.06587 1.97168 4.71048 1.97168 5.66699C1.97168 6.62312 1.97249 7.26724 2.02246 7.75879C2.0708 8.234 2.15661 8.45832 2.25684 8.6084C2.38046 8.79342 2.53958 8.9525 2.72461 9.07617C2.87469 9.17645 3.09881 9.26218 3.57422 9.31055C4.06587 9.36056 4.71047 9.36231 5.66699 9.36231C6.62314 9.3623 7.26723 9.36052 7.75879 9.31055C8.23415 9.26219 8.45832 9.17644 8.6084 9.07617C8.79351 8.95248 8.95251 8.79349 9.07617 8.6084C9.17644 8.45832 9.26219 8.23415 9.31055 7.75879C9.36053 7.26723 9.3623 6.62314 9.36231 5.66699C9.36231 4.71047 9.36056 4.06587 9.31055 3.57422C9.26218 3.09881 9.17645 2.87469 9.07617 2.72461C8.95252 2.53959 8.79346 2.38049 8.6084 2.25684C8.45832 2.15662 8.23399 2.0708 7.75879 2.02246C7.26723 1.97249 6.62312 1.97168 5.66699 1.97168ZM20.334 1.97168C19.3777 1.97168 18.7328 1.97249 18.2412 2.02246C17.7661 2.07079 17.5417 2.15662 17.3916 2.25684C17.2067 2.38044 17.0476 2.53955 16.9238 2.72461C16.8236 2.8747 16.7378 3.09881 16.6895 3.57422C16.6395 4.06588 16.6387 4.7105 16.6387 5.66699C16.6387 6.6231 16.6395 7.26723 16.6895 7.75879C16.7378 8.23396 16.8236 8.45831 16.9238 8.6084L17.0234 8.74219C17.129 8.87068 17.253 8.98349 17.3916 9.07617C17.5417 9.17641 17.7661 9.26221 18.2412 9.31055C18.7328 9.36052 19.3777 9.36231 20.334 9.36231C21.2899 9.3623 21.9343 9.36052 22.4258 9.31055C22.901 9.26218 23.1254 9.1764 23.2754 9.07617C23.4604 8.95251 23.6196 8.79338 23.7432 8.6084L23.8154 8.47949C23.8842 8.33093 23.9413 8.11534 23.9775 7.75879C24.0275 7.26724 24.0293 6.62312 24.0293 5.66699C24.0293 4.71049 24.0276 4.06586 23.9775 3.57422C23.9413 3.21811 23.884 3.00303 23.8154 2.85449L23.7432 2.72461C23.6196 2.53968 23.4604 2.38047 23.2754 2.25684C23.1254 2.15665 22.9008 2.07082 22.4258 2.02246C21.9343 1.97249 21.2899 1.97168 20.334 1.97168Z" fill="url(#paint0_linear_16_1190)"/>
<defs>
<linearGradient id="paint0_linear_16_1190" x1="0.0279163" y1="25.9715" x2="25.9714" y2="0.0280044" gradientUnits="userSpaceOnUse">
<stop stop-color="#FF7A00"/>
<stop offset="1" stop-color="#FFD439"/>
</linearGradient>
</defs>
</svg>

<svg xmlns="http://www.w3.org/2000/svg" width="26" height="26" fill="none" viewBox="0 0 26 26"><path fill="url(#a)" d="M5.667 14.695c.916 0 1.676 0 2.29.062.628.064 1.208.203 1.73.552a3.6 3.6 0 0 1 1.004 1.004l.121.198c.262.47.375.983.431 1.534.062.613.062 1.373.062 2.289s0 1.676-.062 2.289c-.064.629-.203 1.21-.552 1.732a3.6 3.6 0 0 1-1.004 1.003c-.522.35-1.102.488-1.73.552-.614.063-1.374.062-2.29.062s-1.676 0-2.29-.062c-.628-.064-1.209-.203-1.731-.552a3.6 3.6 0 0 1-1.004-1.003c-.35-.523-.488-1.103-.552-1.732-.062-.613-.062-1.373-.062-2.289s0-1.676.062-2.29c.064-.628.203-1.21.552-1.732l.103-.146a3.6 3.6 0 0 1 .9-.857c.523-.35 1.104-.488 1.733-.552.613-.062 1.373-.062 2.289-.062m14.667 0c.916 0 1.676 0 2.289.062.629.064 1.21.203 1.732.552a3.6 3.6 0 0 1 1.003 1.004l.122.198c.26.47.374.983.43 1.534.062.613.062 1.373.062 2.289s0 1.676-.062 2.289c-.064.629-.203 1.21-.552 1.732a3.6 3.6 0 0 1-1.003 1.003c-.523.35-1.103.488-1.732.552-.613.063-1.373.062-2.289.062s-1.676 0-2.29-.062c-.628-.064-1.21-.203-1.732-.552a3.6 3.6 0 0 1-1.003-1.003c-.35-.523-.488-1.103-.552-1.732-.062-.613-.062-1.373-.062-2.289s0-1.676.062-2.29c.064-.628.203-1.209.552-1.732l.103-.146c.249-.335.553-.625.9-.857.523-.35 1.104-.488 1.733-.552.613-.062 1.373-.062 2.289-.062M5.667 16.64c-.957 0-1.601 0-2.093.05-.475.049-.7.134-.85.235a1.7 1.7 0 0 0-.467.468c-.1.15-.186.374-.235.85-.05.49-.05 1.136-.05 2.092s0 1.6.05 2.092c.049.475.135.7.235.85l.1.133q.159.195.368.334l.13.072c.148.07.363.126.72.162.49.05 1.135.052 2.092.052.956 0 1.6-.002 2.092-.052.475-.048.7-.134.85-.234l.133-.1q.194-.159.334-.368l.072-.128c.07-.149.126-.365.163-.721.05-.492.051-1.136.051-2.092s-.001-1.601-.051-2.093c-.037-.356-.094-.571-.163-.72l-.072-.13a1.7 1.7 0 0 0-.468-.467c-.15-.1-.374-.186-.85-.235-.49-.05-1.135-.05-2.091-.05m14.667 0c-.956 0-1.601 0-2.093.05-.475.049-.7.135-.85.235a1.7 1.7 0 0 0-.467.468c-.1.15-.186.374-.235.85-.05.49-.05 1.136-.05 2.092s0 1.6.05 2.092c.049.475.135.7.235.85l.1.133q.16.195.368.334l.128.072c.15.07.365.126.721.162.492.05 1.137.052 2.093.052s1.6-.002 2.092-.052c.475-.048.7-.134.85-.234l.133-.1q.195-.159.334-.368l.072-.128c.07-.149.126-.365.162-.721.05-.492.052-1.136.052-2.092s-.002-1.601-.052-2.093c-.036-.356-.093-.571-.162-.72l-.072-.13a1.7 1.7 0 0 0-.334-.368l-.134-.1c-.15-.1-.374-.185-.85-.233-.49-.05-1.135-.051-2.091-.051M5.667.029c.916 0 1.676-.001 2.29.06.628.065 1.208.204 1.73.553a3.6 3.6 0 0 1 1.004 1.004c.35.522.488 1.103.552 1.732.063.613.062 1.373.062 2.289s0 1.676-.062 2.29c-.064.628-.203 1.208-.552 1.73a3.6 3.6 0 0 1-1.004 1.004c-.522.35-1.102.488-1.73.552-.614.063-1.374.062-2.29.062s-1.676 0-2.29-.062c-.628-.064-1.209-.203-1.731-.552A3.6 3.6 0 0 1 .642 9.687C.292 9.166.154 8.586.09 7.958.028 7.342.028 6.582.028 5.666s0-1.676.062-2.29c.064-.628.203-1.209.552-1.731A3.6 3.6 0 0 1 1.646.642C2.168.292 2.749.154 3.378.09 3.99.028 4.75.028 5.667.028m14.667 0c.916 0 1.676-.001 2.289.06.629.065 1.21.204 1.732.553.397.265.738.606 1.003 1.004.35.522.488 1.103.552 1.732.063.613.062 1.373.062 2.289s0 1.676-.062 2.29c-.064.628-.203 1.208-.552 1.73a3.6 3.6 0 0 1-1.003 1.004c-.523.35-1.103.488-1.732.552-.613.063-1.373.062-2.289.062s-1.676 0-2.29-.062c-.628-.064-1.209-.203-1.732-.552a3.6 3.6 0 0 1-1.003-1.003c-.35-.523-.488-1.103-.552-1.732-.062-.613-.062-1.373-.062-2.289s0-1.676.062-2.29c.064-.628.203-1.209.552-1.731l.103-.147c.249-.335.553-.625.9-.857.523-.35 1.104-.488 1.733-.552.613-.062 1.373-.062 2.289-.062M5.667 1.971c-.957 0-1.601 0-2.093.05-.475.049-.7.135-.85.235a1.7 1.7 0 0 0-.467.468c-.1.15-.186.374-.235.85-.05.49-.05 1.135-.05 2.092 0 .956 0 1.6.05 2.092.049.475.135.7.235.85.123.184.283.344.468.467.15.1.374.186.85.235.49.05 1.135.051 2.092.051.956 0 1.6-.001 2.092-.051.475-.049.7-.135.85-.235.185-.124.344-.283.467-.468.1-.15.186-.374.235-.85.05-.49.051-1.135.051-2.091s-.001-1.601-.051-2.093c-.049-.475-.135-.7-.235-.85a1.7 1.7 0 0 0-.468-.467c-.15-.1-.374-.186-.85-.235-.49-.05-1.135-.05-2.091-.05m14.667 0c-.956 0-1.601 0-2.093.05-.475.049-.7.135-.85.235a1.7 1.7 0 0 0-.467.468c-.1.15-.186.374-.235.85-.05.49-.05 1.135-.05 2.092 0 .956 0 1.6.05 2.092.049.475.135.7.235.85l.1.133a1.7 1.7 0 0 0 .368.334c.15.1.374.186.85.235.49.05 1.136.051 2.092.051s1.6-.001 2.092-.051c.475-.049.7-.135.85-.235.184-.123.344-.283.467-.468l.072-.129c.07-.148.126-.364.162-.72.05-.492.052-1.136.052-2.092s-.001-1.601-.052-2.093c-.036-.356-.093-.571-.162-.72l-.072-.13a1.7 1.7 0 0 0-.468-.467c-.15-.1-.374-.186-.85-.235-.49-.05-1.135-.05-2.091-.05"/><defs><linearGradient id="a" x1=".028" x2="25.971" y1="25.971" y2=".028" gradientUnits="userSpaceOnUse"><stop stop-color="#ff7a00"/><stop offset="1" stop-color="#ffd439"/></linearGradient></defs></svg>
